X: 21091
T: ON A BANK OF FLOWERS
O: Old Scottish air.
Q: "Slowish."
%R: air
B: W. Hamilton "Universal Tune-Book" Vol. 2 Glasgow 1846 p.109 #1
S: http://s3-eu-west-1.amazonaws.com/itma.dl.printmaterial/book_pdfs/hamiltonvol2web.pdf
Z: 2016 John Chambers <jc:trillian.mit.edu>
M: C|
L: 1/8
K: Em
% - - - - - - - - - - - - - - - - - - - - - - - - -
(E>F) |\
G2B2 B2(^c^d) | e2B2 B2g2 | {g}f2e2 {g}f2(e^d) | e6 (E>F) |\
G2B2 B2^c^d | e2B2 B2g2 | {g}f2e2 {g}f2(e^d) | e4 z2 :|
|: g>a |\
b2g2 (gabg) | a2=d2 d2(ef) | g2e2 (efge) | f2B2 B2(GA) |\
(BABc) (BAGA) | (BABc) B2g2 | {g}f2e2 {g}f2e^d | e4 z2 :|
% - - - - - - - - - - - - - - - - - - - - - - - - -

%%sep 1 1 500
%%sep 1 1 500

